src/assets/flags/kw.svg

<?xml version="1.0" encoding="UTF-8"?>
<svg xmlns="http://www.w3.org/2000/svg" xmlns:xlink="http://www.w3.org/1999/xlink" width="25px" height="px" viewBox="0 0 25 19" version="1.1">
<g id="surface1">
<path style=" stroke:none;fill-rule:evenodd;fill:rgb(100%,100%,100%);fill-opacity:1;" d="M 0 6.332031 L 37.5 6.332031 L 37.5 12.664062 L 0 12.664062 Z M 0 6.332031 "/>
<path style=" stroke:none;fill-rule:evenodd;fill:rgb(95.294118%,9.411765%,18.82353%);fill-opacity:1;" d="M 0 12.664062 L 37.5 12.664062 L 37.5 19 L 0 19 Z M 0 12.664062 "/>
<path style=" stroke:none;fill-rule:evenodd;fill:rgb(0%,85.09804%,25.490198%);fill-opacity:1;" d="M 0 0 L 37.5 0 L 37.5 6.335938 L 0 6.335938 Z M 0 0 "/>
<path style=" stroke:none;fill-rule:evenodd;fill:rgb(0%,0%,0.392157%);fill-opacity:1;" d="M 0 0 L 0 19 L 9.351562 12.664062 L 9.375 6.328125 Z M 0 0 "/>
</g>
</svg>

<svg xmlns="http://www.w3.org/2000/svg" width="25" height="px" viewBox="0 0 25 19"><path d="M0 6.332h37.5v6.332H0Zm0 0" style="stroke:none;fill-rule:evenodd;fill:#fff;fill-opacity:1"/><path d="M0 12.664h37.5V19H0Zm0 0" style="stroke:none;fill-rule:evenodd;fill:#f31830;fill-opacity:1"/><path d="M0 0h37.5v6.336H0Zm0 0" style="stroke:none;fill-rule:evenodd;fill:#00d941;fill-opacity:1"/><path d="M0 0v19l9.352-6.336.023-6.336Zm0 0" style="stroke:none;fill-rule:evenodd;fill:#000001;fill-opacity:1"/></svg>
